Newaita-dark/apps/48/curlew.svg

<svg height="48pt" viewBox="0 0 48 48" width="48pt" xmlns="http://www.w3.org/2000/svg" xmlns:xlink="http://www.w3.org/1999/xlink"><linearGradient id="a" gradientUnits="userSpaceOnUse" x1="23.81478" x2="23.81478" y1="42.0509045" y2="44.03547050005"><stop offset="0" stop-opacity=".27451"/><stop offset="1" stop-opacity="0"/></linearGradient><linearGradient id="b"><stop offset="0" stop-opacity=".313725"/><stop offset=".222222" stop-opacity=".27451"/><stop offset="1" stop-opacity="0"/></linearGradient><radialGradient id="c" cx="450.908936" cy="189.579361" gradientTransform="matrix(.00000026 -.117199 -.210958 -.00000015 79.684395 95.392999)" gradientUnits="userSpaceOnUse" r="21.166656" xlink:href="#b"/><radialGradient id="d" cx="450.908936" cy="189.579361" gradientTransform="matrix(-.00000026 .117199 .210958 .00000015 -31.80678 -11.291218)" gradientUnits="userSpaceOnUse" r="21.166656" xlink:href="#b"/><radialGradient id="e" cx="450.908936" cy="189.579361" gradientTransform="matrix(-.00000026 -.117199 .210958 -.00000015 -31.80678 95.392999)" gradientUnits="userSpaceOnUse" r="21.166656" xlink:href="#b"/><radialGradient id="f" cx="450.908936" cy="189.579361" gradientTransform="matrix(.00000026 .117199 -.210958 .00000015 79.684393 -11.291219)" gradientUnits="userSpaceOnUse" r="21.166656" xlink:href="#b"/><linearGradient id="g" gradientUnits="userSpaceOnUse" x1="23.814786" x2="23.814786" y1="42.0509005" y2="4.34415549995"><stop offset="0" stop-color="#fce4ec"/><stop offset="1" stop-color="#81d4fa"/></linearGradient><linearGradient id="h" gradientUnits="userSpaceOnUse" x1="23.814816" x2="23.814816" y1="42.05096580616" y2="13.27472829293"><stop offset="0" stop-color="#424242"/><stop offset="1" stop-color="#616161"/></linearGradient><linearGradient id="i" gradientTransform="matrix(.888889 0 0 .882353 28.222221 3.813721)" gradientUnits="userSpaceOnUse" x1="254" x2="254" y1="212.333328" y2="-147.5"><stop offset="0" stop-color="#f5f5f5" stop-opacity=".133333"/><stop offset="1" stop-color="#fafafa" stop-opacity=".003922"/></linearGradient><path d="m7.691406 42.050781h32.496094v1.984375h-32.496094zm0 0" fill="url(#a)"/><path d="m40.1875 42.050781h3.96875v-1.984375h-3.96875zm0 0" fill="url(#c)"/><path d="m7.691406 42.050781h-3.96875v1.984375h3.96875zm0 0" fill="url(#d)"/><path d="m7.691406 42.050781h-3.96875v-1.984375h3.96875zm0 0" fill="url(#e)"/><path d="m40.1875 42.050781h3.96875v1.984375h-3.96875zm0 0" fill="url(#f)"/><path d="m5.457031 4.34375c-.023437 0-.050781 0-.078125.003906-.050781 0-.097656.007813-.148437.011719-.074219.011719-.148438.03125-.214844.050781-.046875.015625-.09375.03125-.136719.050782-.089844.039062-.175781.082031-.253906.136718-.039062.027344-.078125.054688-.117188.085938-.035156.03125-.070312.0625-.105468.09375-.03125.035156-.0625.070312-.09375.105468-.015625.019532-.03125.039063-.042969.058594-.03125.039063-.058594.078125-.082031.117188-.035156.0625-.070313.125-.097656.195312-.007813.019532-.019532.042969-.027344.066406-.007813.023438-.015625.046876-.023438.070313-.007812.023437-.011718.046875-.019531.070313-.011719.046874-.023437.09375-.03125.144531 0 .023437-.003906.050781-.007813.074219-.003906.050781-.007812.101562-.007812.152343v34.730469c0 .824219.664062 1.488281 1.488281 1.488281h36.714844c.824219 0 1.488281-.664062 1.488281-1.488281v-34.730469c0-.308593-.09375-.59375-.253906-.832031-.027344-.039062-.054688-.078125-.085938-.117188-.027343-.035156-.0625-.070312-.09375-.105468-.035156-.03125-.070312-.0625-.105468-.09375-.039063-.03125-.078125-.058594-.117188-.085938-.078125-.054687-.164062-.097656-.25-.136718-.046875-.019532-.089844-.035157-.136718-.050782-.070313-.019531-.144532-.039062-.21875-.050781-.046876-.003906-.097657-.011719-.148438-.011719-.027344-.003906-.050781-.003906-.078125-.003906zm0 0" fill="url(#g)"/><path d="m23.402344 13.558594c-.179688-.003906-.375.046875-.65625.132812-1.351563.402344-1.65625.996094-1.65625 3.230469 0 1.054687-.109375 2.15625-.246094 2.457031-.140625.3125-.667969.753906-1.253906 1.050782-1.953125.988281-5.003906 3.414062-7.953125 6.320312-1.640625 1.617188-3.527344 3.296875-4.195313 3.738281-1.214844.800781-1.214844.804688-.617187.925781l.597656.121094-.566406.15625c-.308594.085938-.5625.238282-.5625.332032 0 .222656 1.589843-.253907 3.511719-1.050782 1.460937-.609375 2.203124-.742187 6.4375-1.148437 1.523437-.148438 1.566406-.09375.710937.859375-.363281.410156-.355469.464844.441406 2.316406.8125 1.882812 1.078125 3.554688.613281 3.84375-.207031.128906-.246093.257812-.097656.417969-2.800781.140625-7.351562 1.25-9.757812-.121094-.503906-.289063-1.199219-.804687-1.753906-1.015625-.675782-.257812-1.601563-.242188-2.429688-.15625v4.59375c0 .824219.664062 1.488281 1.488281 1.488281h36.714844c.824219 0 1.488281-.664062 1.488281-1.488281v-11.410156c-.828125.414062-2.144531 1.511718-2.527344 1.730468-1.074218.613282-2.214843.242188-2.84375 1.679688-.234374.53125-.21875 1.082031-.675781 1.339844-1.285156.734375-3.015625.152344-4.3125.894531-1.96875 1.121094-4.382812 1.605469-6.550781 2.222656-.414062.117188-.652344.730469-1.078125.894531-1.722656.652344-4.261719-.292968-6.265625-.582031-.226562-.164062-.320312-.40625-.246094-.707031.070313-.28125.023438-.632812-.101562-.78125-.144532-.175781-.21875-1.238281-.207032-2.875.019532-2.238281.078126-2.671875.417969-3.105469.21875-.277343.515625-.734375.664063-1.019531.148437-.285156.828125-.925781 1.511718-1.429688.683594-.503906 1.480469-1.230468 1.777344-1.617187 1.222656-1.601563 1.585938-3.949219 1.070313-6.890625-.382813-2.167969-.300781-2.492188.78125-3.003906 1.316406-.625 4.785156-.296875 6.566406.621094.328125.171874.535156.207031.457031.085937-.429687-.691406-2.703125-1.433594-5.425781-1.773437-.683594-.085938-1.484375-.375-2.109375-.761719-.585938-.363281-.855469-.511719-1.160156-.515625zm-5.175782 16.40625h.019532.003906c.128906.011718.167969.3125.074219.863281-.082031.480469-.140625 1.175781-.128907 1.542969.019532.773437-.082031.835937-.398437.246094-.316406-.59375-.3125-1.550782.007813-2.152344.175781-.328125.324218-.492188.421874-.5zm0 0" fill="url(#h)"/><path d="m5.457031 4.46875c-.824219 0-1.488281.664062-1.488281 1.488281v.246094c0-.824219.664062-1.488281 1.488281-1.488281h36.714844c.824219 0 1.488281.664062 1.488281 1.488281v-.246094c0-.824219-.664062-1.488281-1.488281-1.488281zm0 0" fill="#fff" fill-opacity=".392157"/><path d="m5.457031 41.925781c-.824219 0-1.488281-.664062-1.488281-1.488281v-.246094c0 .824219.664062 1.488282 1.488281 1.488282h36.714844c.824219 0 1.488281-.664063 1.488281-1.488282v.246094c0 .824219-.664062 1.488281-1.488281 1.488281zm0 0" fill="#030303" fill-opacity=".235294"/><path d="m5.457031 4.203125c-.898437 0-1.628906.730469-1.628906 1.628906v34.730469c0 .898438.730469 1.628906 1.628906 1.628906h36.714844c.898437 0 1.628906-.730468 1.628906-1.628906v-34.730469c0-.898437-.730469-1.628906-1.628906-1.628906zm0 .28125h36.714844c.75 0 1.347656.597656 1.347656 1.347656v34.730469c0 .75-.597656 1.347656-1.347656 1.347656h-36.714844c-.75 0-1.347656-.597656-1.347656-1.347656v-34.730469c0-.75.597656-1.347656 1.347656-1.347656zm0 0" fill="#212121"/><path d="m92.907794-136.924123h322.177567c10.415672 0 18.831535 8.374201 18.831535 18.664885v301.346223c0 10.290684-8.415863 18.664884-18.831535 18.664884h-322.177567c-10.415672 0-18.831535-8.3742-18.831535-18.664884v-301.346223c0-10.290684 8.415863-18.664885 18.831535-18.664885zm0 0" fill="url(#i)" stroke="#212121" stroke-linecap="round" stroke-linejoin="round" stroke-width="3" transform="matrix(.093759 0 0 .093759 0 20.158175)"/></svg>

<?xml version="1.0" encoding="UTF-8"?>
<svg xmlns="http://www.w3.org/2000/svg" xmlns:xlink="http://www.w3.org/1999/xlink" width="48pt" height="48pt" viewBox="0 0 48 48" version="1.1">
<defs>
<linearGradient id="linear0" gradientUnits="userSpaceOnUse" x1="254" y1="233.5" x2="254" y2="254.666672" gradientTransform="matrix(0.093759,0,0,0.093759,-0.00000572259,20.158178)">
<stop offset="0" style="stop-color:rgb(0%,0%,0%);stop-opacity:0.27451;"/>
<stop offset="1" style="stop-color:rgb(0%,0%,0%);stop-opacity:0;"/>
</linearGradient>
<radialGradient id="radial0" gradientUnits="userSpaceOnUse" cx="450.908936" cy="189.579361" fx="450.908936" fy="189.579361" r="21.166656" gradientTransform="matrix(0.000000261256,-0.117199,-0.210958,-0.000000152308,79.684395,95.392999)">
<stop offset="0" style="stop-color:rgb(0%,0%,0%);stop-opacity:0.313725;"/>
<stop offset="0.222222" style="stop-color:rgb(0%,0%,0%);stop-opacity:0.27451;"/>
<stop offset="1" style="stop-color:rgb(0%,0%,0%);stop-opacity:0;"/>
</radialGradient>
<radialGradient id="radial1" gradientUnits="userSpaceOnUse" cx="450.908936" cy="189.579361" fx="450.908936" fy="189.579361" r="21.166656" gradientTransform="matrix(-0.000000261256,0.117199,0.210958,0.000000152308,-31.80678,-11.291218)">
<stop offset="0" style="stop-color:rgb(0%,0%,0%);stop-opacity:0.313725;"/>
<stop offset="0.222222" style="stop-color:rgb(0%,0%,0%);stop-opacity:0.27451;"/>
<stop offset="1" style="stop-color:rgb(0%,0%,0%);stop-opacity:0;"/>
</radialGradient>
<radialGradient id="radial2" gradientUnits="userSpaceOnUse" cx="450.908936" cy="189.579361" fx="450.908936" fy="189.579361" r="21.166656" gradientTransform="matrix(-0.000000261256,-0.117199,0.210958,-0.000000152308,-31.80678,95.392999)">
<stop offset="0" style="stop-color:rgb(0%,0%,0%);stop-opacity:0.313725;"/>
<stop offset="0.222222" style="stop-color:rgb(0%,0%,0%);stop-opacity:0.27451;"/>
<stop offset="1" style="stop-color:rgb(0%,0%,0%);stop-opacity:0;"/>
</radialGradient>
<radialGradient id="radial3" gradientUnits="userSpaceOnUse" cx="450.908936" cy="189.579361" fx="450.908936" fy="189.579361" r="21.166656" gradientTransform="matrix(0.000000261256,0.117199,-0.210958,0.000000152308,79.684393,-11.291219)">
<stop offset="0" style="stop-color:rgb(0%,0%,0%);stop-opacity:0.313725;"/>
<stop offset="0.222222" style="stop-color:rgb(0%,0%,0%);stop-opacity:0.27451;"/>
<stop offset="1" style="stop-color:rgb(0%,0%,0%);stop-opacity:0;"/>
</radialGradient>
<linearGradient id="linear1" gradientUnits="userSpaceOnUse" x1="254" y1="233.5" x2="254" y2="-168.666672" gradientTransform="matrix(0.093759,0,0,0.093759,0,20.158174)">
<stop offset="0" style="stop-color:rgb(98.823529%,89.411765%,92.54902%);stop-opacity:1;"/>
<stop offset="1" style="stop-color:rgb(50.588235%,83.137255%,98.039216%);stop-opacity:1;"/>
</linearGradient>
<linearGradient id="linear2" gradientUnits="userSpaceOnUse" x1="960" y1="1695.118164" x2="960" y2="535.118103" gradientTransform="matrix(0.0248071,0,0,0.0248071,0,0)">
<stop offset="0" style="stop-color:rgb(25.882353%,25.882353%,25.882353%);stop-opacity:1;"/>
<stop offset="1" style="stop-color:rgb(38.039216%,38.039216%,38.039216%);stop-opacity:1;"/>
</linearGradient>
<linearGradient id="linear3" gradientUnits="userSpaceOnUse" x1="254" y1="212.333328" x2="254" y2="-147.5" gradientTransform="matrix(0.888889,0,0,0.882353,28.222221,3.813721)">
<stop offset="0" style="stop-color:rgb(96.078431%,96.078431%,96.078431%);stop-opacity:0.133333;"/>
<stop offset="1" style="stop-color:rgb(98.039216%,98.039216%,98.039216%);stop-opacity:0.00392157;"/>
</linearGradient>
</defs>
<g id="surface1">
<path style=" stroke:none;fill-rule:nonzero;fill:url(#linear0);" d="M 7.691406 42.050781 L 40.1875 42.050781 L 40.1875 44.035156 L 7.691406 44.035156 Z M 7.691406 42.050781 "/>
<path style=" stroke:none;fill-rule:nonzero;fill:url(#radial0);" d="M 40.1875 42.050781 L 44.15625 42.050781 L 44.15625 40.066406 L 40.1875 40.066406 Z M 40.1875 42.050781 "/>
<path style=" stroke:none;fill-rule:nonzero;fill:url(#radial1);" d="M 7.691406 42.050781 L 3.722656 42.050781 L 3.722656 44.035156 L 7.691406 44.035156 Z M 7.691406 42.050781 "/>
<path style=" stroke:none;fill-rule:nonzero;fill:url(#radial2);" d="M 7.691406 42.050781 L 3.722656 42.050781 L 3.722656 40.066406 L 7.691406 40.066406 Z M 7.691406 42.050781 "/>
<path style=" stroke:none;fill-rule:nonzero;fill:url(#radial3);" d="M 40.1875 42.050781 L 44.15625 42.050781 L 44.15625 44.035156 L 40.1875 44.035156 Z M 40.1875 42.050781 "/>
<path style=" stroke:none;fill-rule:nonzero;fill:url(#linear1);" d="M 5.457031 4.34375 C 5.433594 4.34375 5.40625 4.34375 5.378906 4.347656 C 5.328125 4.347656 5.28125 4.355469 5.230469 4.359375 C 5.15625 4.371094 5.082031 4.390625 5.015625 4.410156 C 4.96875 4.425781 4.921875 4.441406 4.878906 4.460938 C 4.789062 4.5 4.703125 4.542969 4.625 4.597656 C 4.585938 4.625 4.546875 4.652344 4.507812 4.683594 C 4.472656 4.714844 4.4375 4.746094 4.402344 4.777344 C 4.371094 4.8125 4.339844 4.847656 4.308594 4.882812 C 4.292969 4.902344 4.277344 4.921875 4.265625 4.941406 C 4.234375 4.980469 4.207031 5.019531 4.183594 5.058594 C 4.148438 5.121094 4.113281 5.183594 4.085938 5.253906 C 4.078125 5.273438 4.066406 5.296875 4.058594 5.320312 C 4.050781 5.34375 4.042969 5.367188 4.035156 5.390625 C 4.027344 5.414062 4.023438 5.4375 4.015625 5.460938 C 4.003906 5.507812 3.992188 5.554688 3.984375 5.605469 C 3.984375 5.628906 3.980469 5.65625 3.976562 5.679688 C 3.972656 5.730469 3.96875 5.78125 3.96875 5.832031 L 3.96875 40.5625 C 3.96875 41.386719 4.632812 42.050781 5.457031 42.050781 L 42.171875 42.050781 C 42.996094 42.050781 43.660156 41.386719 43.660156 40.5625 L 43.660156 5.832031 C 43.660156 5.523438 43.566406 5.238281 43.40625 5 C 43.378906 4.960938 43.351562 4.921875 43.320312 4.882812 C 43.292969 4.847656 43.257812 4.8125 43.226562 4.777344 C 43.191406 4.746094 43.15625 4.714844 43.121094 4.683594 C 43.082031 4.652344 43.042969 4.625 43.003906 4.597656 C 42.925781 4.542969 42.839844 4.5 42.753906 4.460938 C 42.707031 4.441406 42.664062 4.425781 42.617188 4.410156 C 42.546875 4.390625 42.472656 4.371094 42.398438 4.359375 C 42.351562 4.355469 42.300781 4.347656 42.25 4.347656 C 42.222656 4.34375 42.199219 4.34375 42.171875 4.34375 Z M 5.457031 4.34375 "/>
<path style=" stroke:none;fill-rule:nonzero;fill:url(#linear2);" d="M 23.402344 13.558594 C 23.222656 13.554688 23.027344 13.605469 22.746094 13.691406 C 21.394531 14.09375 21.089844 14.6875 21.089844 16.921875 C 21.089844 17.976562 20.980469 19.078125 20.84375 19.378906 C 20.703125 19.691406 20.175781 20.132812 19.589844 20.429688 C 17.636719 21.417969 14.585938 23.84375 11.636719 26.75 C 9.996094 28.367188 8.109375 30.046875 7.441406 30.488281 C 6.226562 31.289062 6.226562 31.292969 6.824219 31.414062 L 7.421875 31.535156 L 6.855469 31.691406 C 6.546875 31.777344 6.292969 31.929688 6.292969 32.023438 C 6.292969 32.246094 7.882812 31.769531 9.804688 30.972656 C 11.265625 30.363281 12.007812 30.230469 16.242188 29.824219 C 17.765625 29.675781 17.808594 29.730469 16.953125 30.683594 C 16.589844 31.09375 16.597656 31.148438 17.394531 33 C 18.207031 34.882812 18.472656 36.554688 18.007812 36.84375 C 17.800781 36.972656 17.761719 37.101562 17.910156 37.261719 C 15.109375 37.402344 10.558594 38.511719 8.152344 37.140625 C 7.648438 36.851562 6.953125 36.335938 6.398438 36.125 C 5.722656 35.867188 4.796875 35.882812 3.96875 35.96875 L 3.96875 40.5625 C 3.96875 41.386719 4.632812 42.050781 5.457031 42.050781 L 42.171875 42.050781 C 42.996094 42.050781 43.660156 41.386719 43.660156 40.5625 L 43.660156 29.152344 C 42.832031 29.566406 41.515625 30.664062 41.132812 30.882812 C 40.058594 31.496094 38.917969 31.125 38.289062 32.5625 C 38.054688 33.09375 38.070312 33.644531 37.613281 33.902344 C 36.328125 34.636719 34.597656 34.054688 33.300781 34.796875 C 31.332031 35.917969 28.917969 36.402344 26.75 37.019531 C 26.335938 37.136719 26.097656 37.75 25.671875 37.914062 C 23.949219 38.566406 21.410156 37.621094 19.40625 37.332031 C 19.179688 37.167969 19.085938 36.925781 19.160156 36.625 C 19.230469 36.34375 19.183594 35.992188 19.058594 35.84375 C 18.914062 35.667969 18.839844 34.605469 18.851562 32.96875 C 18.871094 30.730469 18.929688 30.296875 19.269531 29.863281 C 19.488281 29.585938 19.785156 29.128906 19.933594 28.84375 C 20.082031 28.558594 20.761719 27.917969 21.445312 27.414062 C 22.128906 26.910156 22.925781 26.183594 23.222656 25.796875 C 24.445312 24.195312 24.808594 21.847656 24.292969 18.90625 C 23.910156 16.738281 23.992188 16.414062 25.074219 15.902344 C 26.390625 15.277344 29.859375 15.605469 31.640625 16.523438 C 31.96875 16.695312 32.175781 16.730469 32.097656 16.609375 C 31.667969 15.917969 29.394531 15.175781 26.671875 14.835938 C 25.988281 14.75 25.1875 14.460938 24.5625 14.074219 C 23.976562 13.710938 23.707031 13.5625 23.402344 13.558594 Z M 18.226562 29.964844 C 18.234375 29.964844 18.242188 29.964844 18.246094 29.964844 L 18.25 29.964844 C 18.378906 29.976562 18.417969 30.277344 18.324219 30.828125 C 18.242188 31.308594 18.183594 32.003906 18.195312 32.371094 C 18.214844 33.144531 18.113281 33.207031 17.796875 32.617188 C 17.480469 32.023438 17.484375 31.066406 17.804688 30.464844 C 17.980469 30.136719 18.128906 29.972656 18.226562 29.964844 Z M 18.226562 29.964844 "/>
<path style=" stroke:none;fill-rule:nonzero;fill:rgb(100%,100%,100%);fill-opacity:0.392157;" d="M 5.457031 4.46875 C 4.632812 4.46875 3.96875 5.132812 3.96875 5.957031 L 3.96875 6.203125 C 3.96875 5.378906 4.632812 4.714844 5.457031 4.714844 L 42.171875 4.714844 C 42.996094 4.714844 43.660156 5.378906 43.660156 6.203125 L 43.660156 5.957031 C 43.660156 5.132812 42.996094 4.46875 42.171875 4.46875 Z M 5.457031 4.46875 "/>
<path style=" stroke:none;fill-rule:nonzero;fill:rgb(1.176471%,1.176471%,1.176471%);fill-opacity:0.235294;" d="M 5.457031 41.925781 C 4.632812 41.925781 3.96875 41.261719 3.96875 40.4375 L 3.96875 40.191406 C 3.96875 41.015625 4.632812 41.679688 5.457031 41.679688 L 42.171875 41.679688 C 42.996094 41.679688 43.660156 41.015625 43.660156 40.191406 L 43.660156 40.4375 C 43.660156 41.261719 42.996094 41.925781 42.171875 41.925781 Z M 5.457031 41.925781 "/>
<path style=" stroke:none;fill-rule:nonzero;fill:rgb(12.941177%,12.941177%,12.941177%);fill-opacity:1;" d="M 5.457031 4.203125 C 4.558594 4.203125 3.828125 4.933594 3.828125 5.832031 L 3.828125 40.5625 C 3.828125 41.460938 4.558594 42.191406 5.457031 42.191406 L 42.171875 42.191406 C 43.070312 42.191406 43.800781 41.460938 43.800781 40.5625 L 43.800781 5.832031 C 43.800781 4.933594 43.070312 4.203125 42.171875 4.203125 Z M 5.457031 4.484375 L 42.171875 4.484375 C 42.921875 4.484375 43.519531 5.082031 43.519531 5.832031 L 43.519531 40.5625 C 43.519531 41.3125 42.921875 41.910156 42.171875 41.910156 L 5.457031 41.910156 C 4.707031 41.910156 4.109375 41.3125 4.109375 40.5625 L 4.109375 5.832031 C 4.109375 5.082031 4.707031 4.484375 5.457031 4.484375 Z M 5.457031 4.484375 "/>
<path style="fill-rule:nonzero;fill:url(#linear3);stroke-width:3;stroke-linecap:round;stroke-linejoin:round;stroke:rgb(12.941177%,12.941177%,12.941177%);stroke-opacity:1;stroke-miterlimit:4;" d="M 92.907794 -136.924123 L 415.085361 -136.924123 C 425.501033 -136.924123 433.916896 -128.549922 433.916896 -118.259238 L 433.916896 183.086985 C 433.916896 193.377669 425.501033 201.751869 415.085361 201.751869 L 92.907794 201.751869 C 82.492122 201.751869 74.076259 193.377669 74.076259 183.086985 L 74.076259 -118.259238 C 74.076259 -128.549922 82.492122 -136.924123 92.907794 -136.924123 Z M 92.907794 -136.924123 " transform="matrix(0.093759,0,0,0.093759,0,20.158175)"/>
</g>
</svg>
